src/images/footer-vk.svg

<svg width="30" height="30" viewBox="0 0 30 30" fill="none" xmlns="http://www.w3.org/2000/svg">
<path d="M0.544922 15.2195C0.544922 7.21135 7.03679 0.719482 15.0449 0.719482C23.0531 0.719482 29.5449 7.21135 29.5449 15.2195C29.5449 23.2276 23.0531 29.7195 15.0449 29.7195C7.03679 29.7195 0.544922 23.2276 0.544922 15.2195Z" fill="#014C69"/>
<path d="M15.8043 19.9779C15.8043 19.9779 16.0835 19.9475 16.2265 19.7967C16.3573 19.6586 16.3528 19.398 16.3528 19.398C16.3528 19.398 16.3354 18.1809 16.9111 18.0012C17.4784 17.8245 18.2069 19.1782 18.98 19.6987C19.564 20.0923 20.0073 20.0061 20.0073 20.0061L22.0733 19.9779C22.0733 19.9779 23.1535 19.9126 22.6414 19.0787C22.599 19.0104 22.3426 18.4616 21.1057 17.3344C19.8099 16.1545 19.9839 16.3453 21.5437 14.3041C22.4939 13.061 22.8736 12.3021 22.7548 11.9776C22.6421 11.6673 21.9431 11.7497 21.9431 11.7497L19.6177 11.7638C19.6177 11.7638 19.4453 11.7408 19.3174 11.8158C19.1926 11.8893 19.1117 12.0608 19.1117 12.0608C19.1117 12.0608 18.744 13.0224 18.2531 13.8407C17.2174 15.5664 16.8036 15.6577 16.6342 15.5508C16.2401 15.3006 16.3384 14.5469 16.3384 14.0115C16.3384 12.3385 16.5971 11.6413 15.8354 11.4608C15.5827 11.4007 15.3966 11.3613 14.7498 11.3546C13.92 11.3465 13.218 11.3576 12.82 11.5484C12.5553 11.6754 12.351 11.9591 12.4759 11.9754C12.6294 11.9955 12.9774 12.0675 13.162 12.314C13.4003 12.6326 13.3919 13.3469 13.3919 13.3469C13.3919 13.3469 13.5289 15.3162 13.072 15.5605C12.7588 15.7283 12.3291 15.386 11.4054 13.8199C10.9326 13.018 10.5756 12.1314 10.5756 12.1314C10.5756 12.1314 10.5067 11.9658 10.3834 11.8767C10.2344 11.769 10.0264 11.7356 10.0264 11.7356L7.81672 11.7497C7.81672 11.7497 7.48463 11.7586 7.36283 11.9004C7.25466 12.0259 7.35451 12.2865 7.35451 12.2865C7.35451 12.2865 9.08457 16.2599 11.0438 18.2626C12.8405 20.0982 14.8799 19.9779 14.8799 19.9779H15.8043Z" fill="white"/>
</svg>

<svg xmlns="http://www.w3.org/2000/svg" width="30" height="30" fill="none"><path fill="#014C69" d="M.545 15.22c0-8.009 6.492-14.5 14.5-14.5s14.5 6.491 14.5 14.5c0 8.008-6.492 14.5-14.5 14.5s-14.5-6.492-14.5-14.5Z"/><path fill="#fff" d="M15.804 19.978s.28-.03.423-.181c.13-.138.126-.399.126-.399s-.018-1.217.558-1.397c.567-.177 1.296 1.177 2.069 1.698.584.393 1.027.307 1.027.307l2.066-.028s1.08-.065.568-.9c-.042-.068-.298-.616-1.535-1.744-1.296-1.18-1.122-.989.438-3.03.95-1.243 1.33-2.002 1.21-2.326-.112-.31-.81-.228-.81-.228l-2.326.014s-.173-.023-.3.052c-.125.073-.206.245-.206.245s-.368.961-.859 1.78c-1.036 1.725-1.45 1.817-1.619 1.71-.394-.25-.296-1.004-.296-1.54 0-1.672.26-2.37-.503-2.55-.252-.06-.438-.1-1.085-.106-.83-.008-1.532.003-1.93.193-.265.127-.469.411-.344.427.153.02.501.093.686.339.238.319.23 1.033.23 1.033s.137 1.97-.32 2.213c-.313.168-.743-.174-1.667-1.74a14.432 14.432 0 0 1-.83-1.689s-.068-.165-.192-.254c-.149-.108-.357-.141-.357-.141l-2.21.014s-.331.009-.453.15c-.108.126-.008.386-.008.386s1.73 3.974 3.689 5.977c1.796 1.835 3.836 1.715 3.836 1.715h.924Z"/></svg>
